X: 8789
T: Cuckoo's Nest, The
R: barndance
M: 4/4
K: Eminor
|:E>F|G2 G>F E2 e2|B>cB>G A2 (3cBA|G>FE>^D E2 G>B|A>G (3GFE D2 E>F|
G>AG>F E2 e2|B2 B2 A2- A>B|F>A (3GFE D2 (3DEF|G2 E2 E2:|
|:(3B^cd|e2- e>e e2 f>e|^d2 B>^A B2- B>^c|d2- d>d d>Be>d|^c2 A2 A2- A>F|
G>AF>G E2- E>e|B2 (3BAG A2- A>B|F2 F>E D>F (AGF|G2 E2 E2:|

